X:1
T:Air on G String
T:Composed by. J.S. Bach Arranged by Banuwarsa
T:Air on G String 
T:(Duet for Violin and Piano)
C:Composed by. J.S. Bach
C:Arranged by Banuwarsa
%%score 1 { 2 | 3 }
L:1/8
Q:1/4=60
M:4/4
K:D
V:1 treble nm="Violin" snm="Vln."
V:2 treble nm="Piano" snm="Pno."
V:3 bass 
V:1
"^Adagio" f8- | f8- | f2 bg edcd | c3 B A4 | a8- | af=cB e^dag | g8- | geBA dcgf | f6 ^ga | %9
 d2 ef feed | cBBc d2 cB | A8 | f8- | f8- | f2 bg edcd | c3 B A4 | a8- | af=cB e^dag | g8- | %19
 geBA dcgf | f6 ^ga | d2 ef feed | cBBc d2 cB | A8 | c4- ccBA | a6 =c2 | B2 b2- bagf | g4- gecB | %28
 ^AB c2- cd e2- | ef g4 f2 | edcB c2 dc | B8 | d4- dfed | b6 a^g | feaA B2 cd | c3 B A4 | d6 fe | %37
 e6 gf | f6 ag | g8 | A4- Aceg | ge f4 ga | d4- dfa=c' | =c'2 b4 d2 | ^ce g4 B2 | A2 ef g f2 e | %46
 dcBc c3 d | d8 |] %48
V:2
!ped! (3A,DF (3A,DF (3A,CF (3A,C!ped-up!F | (3B,!ped!DF (3B,DF (3A,!ped-up!DF (3A,DF | %2
 (3B,!ped!DG (3B,DG (3B,!ped-up!D^G (3B,DG | (3C!ped!EA (3CEA (3C!ped-up!E=G (3CEG | %4
!ped! (3=CFA (3CFA (3CEA (3C!ped-up!EA | (3^D!ped!FB (3DFB (3D!ped-up!FA (3DFA | %6
 (3B,!ped!EG (3B,EG (3B,!ped-up!=DG (3B,DG | (3C!ped!EA (3CEA (3C!ped-up!EG (3CEG | %8
 (3A,!ped!DF (3A,DF (3A,CF (3A,!ped-up!CE |!ped! (3B,DF (3B,DF (3B,DE (3B,D!ped-up!E | %10
 (3A,!ped!CE (3A,DE (3B,!ped-up!DE (3B,DE | (3A,!ped!CE (3A,CE (3G,!ped-up!CE (3G,CE | %12
 (3A,!ped!DF (3A,DF (3A,!ped-up!CF (3A,CF | (3B,!ped!DF (3B,DF (3A,!ped-up!DF (3A,DF | %14
 (3B,!ped!DG (3B,DG (3B,!ped-up!D^G (3B,DG | (3C!ped!EA (3CEA (3C!ped-up!E=G (3CEG | %16
 (3=C!ped!FA (3CFA (3C!ped-up!EA (3CEA | (3^D!ped!FB (3DFB (3D!ped-up!FA (3DFA | %18
 (3B,!ped!EG (3B,EG (3B,!ped-up!=DG (3B,DG | (3C!ped!EA (3CEA (3C!ped-up!EG (3CEG | %20
 (3A,!ped!DF (3A,DF (3A,CF (3A,!ped-up!CE | (3B,!ped!DF (3B,DF (3B,!ped-up!DE (3B,DE | %22
 (3A,!ped!CE (3A,DE (3B,!ped-up!DE (3B,DE | (3A,!ped!CE (3A,CE (3G,!ped-up!CE (3G,CE | %24
 (3A,!ped!CE (3A,CE (3G,!ped-up!CE (3G,CE | (3=C!ped!EA (3CEA (3C!ped-up!FA (3CFA | %26
 (3^D!ped!FB (3DFB (3D!ped-up!FA (3DFA | (3B,!ped!EG (3B,EG (3B,!ped-up!=DG (3B,DG | %28
!ped! (3CEG (3CEG (3B,EG (3B,!ped-up!EG |!ped! (3^A,CF (3B,CG (3CEG (3A,!ped-up!CE | %30
 (3B,!ped!DF (3G,CE (3E,G,C (3^A,!ped-up!DF | (3B,!ped!DF (3B,DF (3=A,!ped-up!DF (3A,DF | %32
!ped! (3B,DF (3B,DF (3A,DF (3A,!ped-up!DF |!ped! (3E^GB (3EGB (3DGB (3D!ped-up!GB | %34
!ped! (3CEA (3CEA (3A,DF (3B,!ped-up!D^G |!ped! (3CEA (3CEA (3=G,C=G (3G,!ped-up!CG | %36
 (3A,!ped!DF (3A,DF (3G,!ped-up!DF (3G,DF | (3^G,!ped!B,F (3G,B,F (3A,!ped-up!C=G (3A,CG | %38
 (3^A,!ped!EF (3A,EF (3=A,!ped-up!^DF (3A,DF | (3B,!ped!EG (3B,EG (3B,!ped-up!=DG (3B,DG | %40
 (3G,!ped!CE (3G,CE (3A,!ped-up!CE (3A,CE | (3A,!ped!DF (3A,DF (3A,!ped-up!=CF (3A,CF | %42
 (3B,!ped!DE (3B,DE (3A,!ped-up!=CF (3A,CF | (3G,!ped!B,G (3G,B,G (3G,!ped-up!DF (3G,DF | %44
 (3G,!ped!CE (3G,CE (3G,!ped-up!B,E (3G,B,E | (3A,!ped!CE (3A,CE (3A,DF (3G,!ped-up!B,E | %46
 (3A,!ped!DF (3A,CE (3G,!ped-up!CE (3G,CE | [A,DF]8 |] %48
V:3
 [D,,D,]4 [C,,C,]4 | [B,,,B,,]4 [A,,,A,,]4 | [G,,,G,,]4 [^G,,,^G,,]4 | [A,,,A,,]4 [=G,,,=G,,]4 | %4
 [F,,,F,,]4 [E,,E,]4 | [^D,,^D,]4 [B,,,B,,]4 | [E,,E,]4 [=D,,=D,]4 | [C,,C,]4 [A,,,A,,]4 | %8
 [D,,D,]4 [C,,C,]2 [C,,C,]2 | [B,,,B,,]4 [E,,E,]4 | [A,,,A,,]2 [D,,D,]2 [E,,E,]4 | %11
 [A,,,A,,]4 [A,,,A,,]4 | [D,,D,]4 [C,,C,]4 | [B,,,B,,]4 [A,,,A,,]4 | [G,,,G,,]4 [^G,,,^G,,]4 | %15
 [A,,,A,,]4 [=G,,,=G,,]4 | [F,,,F,,]4 [E,,E,]4 | [^D,,^D,]4 [B,,,B,,]4 | [E,,E,]4 [=D,,=D,]4 | %19
 [C,,C,]4 [A,,,A,,]4 | [D,,D,]4 [C,,C,]2 [C,,C,]2 | [B,,,B,,]4 [E,,E,]4 | %22
 [A,,,A,,]2 [D,,D,]2 [E,,E,]4 | [A,,,A,,]4 [A,,,A,,]4 | [A,,,A,,]4 [G,,,G,,]4 | [F,,F,]4 [E,,E,]4 | %26
 [^D,,^D,]4 [B,,,B,,]4 | [E,,E,]4 [=D,,=D,]4 | [C,,C,]4 [B,,,B,,]4 | %29
 [^A,,,^A,,]2 [B,,,B,,]2 [C,,C,]2 [A,,,A,,]2 | [B,,,B,,]2 [G,,,G,,]2 [E,,E,]2 [F,,F,]2 | %31
 [B,,,B,,]4 [A,,,A,,]4 | [^G,,^G,]4 [F,,F,]4 | [E,,E,]4 [D,,D,]4 | [C,,C,]4 [D,,D,]2 [E,,E,]2 | %35
 [A,,,A,,]4 [G,,,G,,]4 | [F,,,F,,]4 [G,,,G,,]4 | [^G,,,^G,,]4 [A,,,A,,]4 | %38
 [^A,,,^A,,]4 [B,,,B,,]4 | [E,,E,]4 [D,,D,]4 | [C,,C,]4 [A,,,A,,]4 | [D,,D,]4 [=C,,=C,]4 | %42
 [B,,,B,,]4 [A,,,A,,]4 | [G,,G,]4 [F,,F,]4 | [E,,E,]4 [D,,D,]4 | [C,,C,]4 [D,,D,]2 [C,,C,]2 | %46
 [A,,,A,,]2 [G,,,G,,]2 [A,,,A,,]4 | [D,,D,]8 |] %48

